X: 5941
T: Cameronian, The
R: reel
M: 4/4
K: Dmajor
dB|:A2 F>A DAFA|GFEF GBdB|A2 FA DAFA|GBAG F<DDB|
A<F F2 D<F F2|GFEF GBdB|B<AFA DFAF|GBAG F<DDB:|
|:Addc d2 ed|cdef gfed|(3cBA eA fAeA|cdef gfeg|
faeg faeg|f2 fe defg|gf (3gfe fdec|dBAG FD D2:|

